X:405
T:Stack of Wheat, The
M:C|
L:1/8
Q:120
R:Hornpipe (Key of G)
K:G
BA |: "G"GEDE GABG | "D"(3ABA GA (3Bcd ef | "G"gedB GABG | dBAG "Em"E2BA |
"G"GEDE GABG | "D"(3ABA GA (3Bcd ef | "G"gedB GABG |1 "D"AGEF "G"G2"D"BA :|2 "D"AGEF "G"G2 (3Bcd|:
"Em"edBd edgd | edBd e2ef | "G"gedB GABG |1 "D"dBAG "C"E2 (3Bcd |
"Em"edBd edgd | edBd e2ef | "G"gedB GABG | "D"AGEF "G"G2 (3Bcd :|2
"D"dBAG "C"E2BA | "G"GEDE GABG | "D"(3ABA GA (3Bcd ef | "G"gedB GABG | "D"AGEF "G"G2 |]
